X:5835
T:Gan Ainm
R:reel
S:(Unknown fiddle)
H:
N:
D:Taped @ Milltown
Z:Adrian Scahill
M:4/4
L:1/8
K:E
B2GB EBGB|EBGB cBAc|B2GB EBGB|Bcef gfec:||
Bege bege|Bege fece|Bege bege|f3a gfec|\
Bege bege|Bege f3g|a3b agfe|Bcef gfec||
